X: 161913
T: Pure Drop HP
S: "Roche Collection of Traditional Irish Music" [II/15/225]
L: 1/8
M: 4/4
R: hornpipe
K: G
dc | BGGG DGGc | Bdef gedc | BG (3GGG DGGc | BGdB A2 dc |
BGGG DGGc | Bdef gfga | bgaf gfed | egdB A2 :|
Bd | e2 fd edBA | BdAf gedc | BG G2 DGGc | BGdB A2 Bd |
e2 fd edBA | Bdef g2 fg | afge d2 Bd | egdB A2 :|
